!!!!SEGMENT: Any1004d-Missa_Queramus_cum_pastoribus-Sanctus--Cambrai_3.krn
!!!id: Any1004d
!!!SMS: Cambrai 3
!!!AGN: Mass; Sanctus
!!!voices: 2-4
!!!OPR: Missa Queramus cum pastoribus (Cambrai 3)
!!!COM: Anonymous
!!!OTL: Sanctus
**kern	**kern	**kern	**kern
*part4	*part3	*part2	*part1
*staff4	*staff3	*staff2	*staff1
*I"Bassus	*I"Tenor	*I"Altus	*I"Superius
*I'B	*I'T	*I'A	*I'S
*clefF4	*clefGv2	*clefGv2	*clefG2
*k[b-]	*k[b-]	*k[b-]	*k[b-]
*F:	*F:	*F:	*F:
*M2/1	*M2/1	*M2/1	*M2/1
*met(C|)	*met(C|)	*met(C|)	*met(C|)
=1	=1	=1	=1
!!section: Sanctus
!!!OMD: Sanctus
0r	0r	1r	0cc
.	.	[1f	.
=2	=2	=2	=2
0r	0r	1f]	1cc
.	.	1f	1f
=3	=3	=3	=3
0F	1r	1c	1.cc
.	[1c	[1f	.
.	.	.	2b-y
=4	=4	=4	=4
1F	1c]	2f]	1a
.	.	2f	.
1C	1c	1e	2g
.	.	.	[2cc
=5	=5	=5	=5
1r	1G	1d	4cc]
.	.	.	8bnXiL
.	.	.	8aJ
.	.	.	2bni
[1F	2r	[1c	1cc
.	[2c	.	.
=6	=6	=6	=6
1F]	4c]	1c]	2r
.	4B-y	.	.
.	2.A	.	2.cc
1F	.	1r	.
.	4G	.	4dd
.	[2c	.	2ee
=7	=7	=7	=7
1D	4c]	1r	2.ff
.	8BnXiL	.	.
.	8AJ	.	.
.	2Bni	.	.
.	.	.	8eeL
.	.	.	8ddJ
1C	1c	2r	4ee
.	.	.	4dd
.	.	2c	4cc
.	.	.	4b-y
=8	=8	=8	=8
0r	2r	2d	4a
.	.	.	4g
.	2c	2e	2.cc
.	2.d	1f	.
.	.	.	8bnXiL
.	.	.	8aJ
.	.	.	2bni
.	4c	.	.
=9	=9	=9	=9
2r	2A	1e	2cc
2G	2B-y	.	2b-y
2.A	2F	[1c	4a
.	.	.	4g
.	2f	.	4a
4G	.	.	4b-y
=10	=10	=10	=10
2E	2g	1c]	0cc
2F	2f	.	.
2C	2e	2r	.
2A	[2f	2c	.
=11	=11	=11	=11
2.B-y	4f]	1d	1r
.	4e	.	.
.	4d	.	.
4A	4c	.	.
2G	2B-y	1e	2r
2A	2c	.	2cc
=12	=12	=12	=12
[0D	2r	0f	2.dd
.	2A	.	.
.	.	.	4cc
.	2.d	.	2a
.	.	.	2b-y
.	4c	.	.
=13	=13	=13	=13
1D]	2A	1r	2.f
.	2B-y	.	.
.	.	.	4g
1r	4F	2r	4a
.	4G	.	4b-y
.	4A	[2a	4cc
.	4B-y	.	4dd
=14	=14	=14	=14
0r	2c	2a]	4ee
.	.	.	4cc
.	2d	4g	2.ff
.	.	4f	.
.	1c	1g	.
.	.	.	8eeL
.	.	.	8ddJ
.	.	.	2ee
=15	=15	=15	=15
2r	2B-y	2r	0dd
1B-y	1d	2f	.
.	.	[1f	.
4A	4c	.	.
4G	4B-y	.	.
=16	=16	=16	=16
1A	1c	1f]	2r
.	.	.	2.cc
2G	2r	[1g	.
.	.	.	4b-y
2C	[2e	.	[2cc
=17	=17	=17	=17
2r	2e]	0g]	2cc]
1G	4d	.	4bnXi
.	4c	.	4a
.	1d	.	1bni
2G	.	.	.
=18	=18	=18	=18
0C	2r	0e	2.cc
.	1c	.	.
.	.	.	8b-yL
.	.	.	8aJ
.	.	.	1g
.	2c	.	.
=19	=19	=19	=19
1D	1F	1r	0r
1E	[1G	2r	.
.	.	2g	.
=20	=20	=20	=20
1C	1G]	1g	2r
.	.	.	1cc
1r	1A	1c	.
.	.	.	2cc
=21	=21	=21	=21
0r	0r	1d	1f
.	.	2.e	1g
.	.	4d	.
=22	=22	=22	=22
0r	1.c	2e	2.a
.	.	1f	.
.	.	.	8gL
.	.	.	8fJ
.	.	.	2g
.	2c	2e	[2a
=23	=23	=23	=23
2r	2.F	2d	4a]
.	.	.	4g
1F	.	2c	1cc
.	4G	.	.
.	2A	1d	.
2G	2B-y	.	2bnXi
=24	=24	=24	=24
1A	2.F	1r	2.cc
.	4G	.	4b-y
2r	2A	2r	2cc
[2G	[2B-y	2d	2dd
=25	=25	=25	=25
2G]	2B-]	2e	2b-y
2A	2c	2f	4a
.	.	.	4g
2B-y	2r	[1d	1f
[2BB-y	[2B-y	.	.
=26	=26	=26	=26
2BB-]	4B-]	2d]	1r
.	4A	.	.
2C	1G	2c	.
1D	.	2A	2r
.	2F	2B-y	[2f
=27	=27	=27	=27
1C	1G	1c	2f]
.	.	.	2e
2r	4F	1A	2.f
.	4G	.	.
[2F	4A	.	.
.	4B-y	.	4g
=28	=28	=28	=28
2F]	2c	0r	2a
2G	2B-y	.	2b-y
2A	4c	.	2r
.	4F	.	.
2B-y	[2f	.	2f
=29	=29	=29	=29
1G	4f]	1r	1g
.	8eL	.	.
.	8dJ	.	.
.	2e	.	.
1F	2f	2r	1a
.	2F	2c	.
=30	=30	=30	=30
1r	2B-y	1d	2b-y
.	2F	.	2a
2r	1c	2e	2g
2F	.	2f	[2cc
=31	=31	=31	=31
1G	1r	1d	4cc]
.	.	.	8bnXiL
.	.	.	8aJ
.	.	.	2bni
2.A	2r	1c	2.cc
.	2c	.	.
4G	.	.	4b-y
=32	=32	=32	=32
2F	2d	2r	2a
2E	2e	2c	2g
1D	2f	1d	2r
.	2F	.	2f
=33	=33	=33	=33
2C	4c	2e	4a
.	4B-y	.	4g
1D	4A	2f	4f
.	4G	.	4e
.	2A	1d	4f
.	.	.	4d
2BB-y	2B-y	.	[2f
=34	=34	=34	=34
1C	1G	0c	4f]
.	.	.	8eL
.	.	.	8dJ
.	.	.	2e
1r	1F	.	1f
=35	=35	=35	=35
1F	1r	1r	1a
1F	1A	1c	1a
=36	=36	=36	=36
2r	1A	1c	2r
1F	.	.	1a
.	2r	1r	.
2F	[2d	.	2a
=37	=37	=37	=37
1.G	2d]	1r	1.b-y
.	2d	.	.
.	1B-y	2r	.
4F	.	[2d	4a
4E	.	.	4g
=38	=38	=38	=38
2F	2r	2d]	2a
2G	2G	2d	2b-y
[1C	1G	[1e	2.cc
.	.	.	8b-yL
.	.	.	8aJ
=39	=39	=39	=39
1C]	2r	1e]	1g
.	1c	.	.
2r	.	1r	2r
[2F	2c	.	[2a
=40	=40	=40	=40
2F]	2.d	2r	2a]
2F	.	1d	2a
.	4c	.	.
[1G	4B-y	.	1b-y
.	4A	.	.
.	2G	2d	.
=41	=41	=41	=41
2G]	2B-y	1e	1g
4F	4A	.	.
4E	4G	.	.
2F	2A	1r	2r
[2G	[2B-y	.	2g
=42	=42	=42	=42
2G]	2B-]	2r	2.b-y
4F	4A	1d	.
4E	4G	.	4cc
1D	2A	.	1dd
.	2B-y	2d	.
=43	=43	=43	=43
0Cl	0cl	0el	0gl
=44||	=44||	=44||	=44||
*M2/1	*M2/1	*M2/1	*M2/1
*met(C|)	*met(C|)	*met(C|)	*met(C|)
!!section: Pleni sunt
!!!OMD: Pleni sunt
2.C	0r	0r	0r
4D	.	.	.
4E	.	.	.
4C	.	.	.
[2F	.	.	.
=45	=45	=45	=45
4F]	1c	0r	0r
4G	.	.	.
4A	.	.	.
4F	.	.	.
2G	2B-y	.	.
[2F	2A	.	.
=46	=46	=46	=46
4F]	2.c	0r	0r
4E	.	.	.
4F	.	.	.
4D	4B-y	.	.
2E	2c	.	.
[2F	2d	.	.
=47	=47	=47	=47
4F]	1A	1r	0r
4E	.	.	.
4D	.	.	.
4C	.	.	.
1BB-y	2r	1f	.
.	2d	.	.
=48	=48	=48	=48
1r	2c	2e	0r
.	2B-y	2d	.
2r	1d	2.f	.
2B-y	.	.	.
.	.	4e	.
=49	=49	=49	=49
2A	2c	2f	0r
2G	1d	2g	.
[1B-y	.	[1d	.
.	[2G	.	.
=50	=50	=50	=50
2B-]	2G]	1d]	0r
2A	2F	.	.
2B-y	2G	1r	.
2c	[2A	.	.
=51	=51	=51	=51
1F	4A]	1f	0r
.	4G	.	.
.	4A	.	.
.	4B-y	.	.
1r	4c	2e	.
.	4A	.	.
.	[2B-y	2d	.
=52	=52	=52	=52
2r	4B-]	2.f	0r
.	4A	.	.
1F	1A	.	.
.	.	4e	.
.	.	2f	.
2E	2G	2g	.
=53	=53	=53	=53
2F	2A	[0d	0r
2G	2B-y	.	.
1D	2A	.	.
.	2d	.	.
=54	=54	=54	=54
2r	2.B-y	1d]	0r
1G	.	.	.
.	4c	.	.
.	2d	1r	.
2E	2G	.	.
=55	=55	=55	=55
1F	4A	1.d	0r
.	4F	.	.
.	2.f	.	.
1G	.	.	.
.	8eL	.	.
.	8dJ	.	.
.	2e	2B-y	.
=56	=56	=56	=56
1C	2d	1c	0r
.	1c	.	.
2r	.	1d	.
[2G	2B-y	.	.
=57	=57	=57	=57
2G]	2c	0r	0r
2F	2A	.	.
2G	2G	.	.
2E	2c	.	.
=58	=58	=58	=58
2D	2.B-y	1r	0r
1G	.	.	.
.	4c	.	.
.	1A	[1d	.
2F#i	.	.	.
=59	=59	=59	=59
1G	2B-y	2d]	0r
.	1G	2B-y	.
1E	.	1c	.
.	[2c	.	.
=60	=60	=60	=60
1D	2c]	1d	0r
.	2BnXi	.	.
1C	2c	1r	.
.	2A	.	.
=61	=61	=61	=61
2r	1G	2.g	0r
1c	.	.	.
.	.	4f	.
.	2r	2e	.
2B-y	[2g	2d	.
=62	=62	=62	=62
2c	2g]	2e	0r
2A	2f	2c	.
1G	2g	2d	.
.	2e	2e	.
=63	=63	=63	=63
[0F	1d	[0f	0r
.	1c	.	.
=64	=64	=64	=64
0F]	1r	0f]	0r
.	1c	.	.
=65	=65	=65	=65
1r	2c	0r	0r
.	2d	.	.
1F	2.c	.	.
.	4c	.	.
=66	=66	=66	=66
2F	2c	0r	0r
2G	2B-y	.	.
2.F	1A	.	.
4E	.	.	.
=67	=67	=67	=67
2D	2B-y	1r	0r
2D	2B-y	.	.
1C	2c	1g	.
.	2e-i	.	.
=68	=68	=68	=68
2G	2.d	2g	0r
2F	.	2a	.
.	4c	.	.
2G	4B-y	2.g	.
.	4A	.	.
2C	[2c	.	.
.	.	4g	.
=69	=69	=69	=69
1D	2c]	2g	0r
.	2BnXi	2f	.
1C	1c	[1e	.
=70	=70	=70	=70
1r	2c	1e]	0r
.	2c	.	.
2F	2d	1r	.
2F	2f	.	.
=71	=71	=71	=71
2G	2e	1r	0r
2B-y	2d	.	.
2.A	2r	2f	.
.	2c	2f	.
8GL	.	.	.
8FJ	.	.	.
=72	=72	=72	=72
2E	2e	2g	0r
2G	2d	2b-y	.
2.F	2f	2.a	.
.	2F	.	.
8EL	.	8gL	.
8DJ	.	8fJ	.
=73	=73	=73	=73
2C	4G	4e	0r
.	4A	4d	.
2BB-y	4B-y	2.g	.
.	4c	.	.
1D	4B-y	.	.
.	4A	4f	.
.	4G	[2f	.
.	4F	.	.
=74	=74	=74	=74
1C	1G	2f]	0r
.	.	2e	.
[1F	1F	[1f	.
=75	=75	=75	=75
1F]	1r	1f]	0r
1r	2c	1r	.
.	2c	.	.
=76	=76	=76	=76
2F	2d	0r	0r
2F	2f	.	.
2G	2e	.	.
2B-y	2d	.	.
=77	=77	=77	=77
2.A	2r	2f	0r
.	2c	2f	.
8GL	.	.	.
8FJ	.	.	.
2E	2e	2g	.
2G	2d	2b-y	.
=78	=78	=78	=78
2.F	2f	2.a	0r
.	2F	.	.
8EL	.	8gL	.
8DJ	.	8fJ	.
2C	4G	4e	.
.	4A	4d	.
2BB-y	4B-y	[2g	.
.	4c	.	.
=79	=79	=79	=79
1D	4B-y	4g]	0r
.	4A	4f	.
.	4G	1f	.
.	4F	.	.
1C	1G	.	.
.	.	2e	.
=80	=80	=80	=80
0Fl	0Fl	0fl	0r
=81||	=81||	=81||	=81||
*M2/1	*M2/1	*M2/1	*M2/1
*met(C|)	*met(C|)	*met(C|)	*met(C|)
!!section: Osanna
!!!OMD: Osanna
0F	2.F	0r	1r
.	4G	.	.
.	4A	.	[1f
.	4B-y	.	.
.	2c	.	.
=82	=82	=82	=82
1F	2d	0r	1f]
.	2.c	.	.
1C	.	.	1g
.	4B-y	.	.
.	[2c	.	.
=83	=83	=83	=83
1F	4c]	0f	1.a
.	4B-y	.	.
.	4A	.	.
.	4G	.	.
2r	1F	.	.
2c	.	.	[2f
=84	=84	=84	=84
1c	2r	1g	4f]
.	.	.	8eL
.	.	.	8dJ
.	1c	.	2e
1F	.	[1a	2.f
.	[2F	.	.
.	.	.	4g
=85	=85	=85	=85
2r	4F]	1a]	4a
.	4G	.	4b-y
2F	4A	.	2.cc
.	4B-y	.	.
1F	4c	1f	.
.	4F	.	4b-y
.	[2f	.	2a
=86	=86	=86	=86
1C	4f]	1.g	2g
.	8eL	.	.
.	8dJ	.	.
.	2e	.	2.cc
[1G	2d	.	.
.	.	.	8b-yL
.	.	.	8aJ
.	2B-y	2d	[2b-y
=87	=87	=87	=87
2G]	2.d	2g	4b-]
.	.	.	4cc
2D	.	2f	2dd
.	4c	.	.
[1G	4B-y	2g	2r
.	4A	.	.
.	2G	2e	[2b-y
=88	=88	=88	=88
1G]	1B-y	2.d	4b-]
.	.	.	4a
.	.	.	2.g
.	.	4c	.
1D	1A	4d	.
.	.	4c	8f#iL
.	.	.	8eJ
.	.	4B-y	2f#i
.	.	4A	.
=89	=89	=89	=89
1r	2G	2B-y	[0g
.	2.e	2c	.
2r	.	1G	.
.	8dL	.	.
.	8cJ	.	.
2C	2e	.	.
=90	=90	=90	=90
1G	4d	0r	0g]
.	4c	.	.
.	4B-y	.	.
.	4A	.	.
2E	2G	.	.
2C	[2c	.	.
=91	=91	=91	=91
1D	4c]	2r	1r
.	8BnXiL	.	.
.	8AJ	.	.
.	2Bni	2d	.
1C	1c	[1g	2r
.	.	.	2cc
=92	=92	=92	=92
2r	0r	1g]	4dd
.	.	.	4cc
2G	.	.	4b-y
.	.	.	4a
1c	.	1e	4g
.	.	.	4f
.	.	.	[2g
=93	=93	=93	=93
2A	0r	1c	4g]
.	.	.	4f
2F	.	.	2.f
1G	.	1r	.
.	.	.	8eL
.	.	.	8dJ
.	.	.	2e
=94	=94	=94	=94
1F	2r	0r	4f
.	.	.	4g
.	2A	.	4a
.	.	.	4b-y
2r	1d	.	2a
2D	.	.	[2dd
=95	=95	=95	=95
1G	2B-y	2r	4dd]
.	.	.	4cc
.	2G	2d	4b-y
.	.	.	4a
2E	2B-y	1g	2g
2C	[2c	.	2e
=96	=96	=96	=96
2E	2c]	2e	2g
2F	2A	2c	2a
2G	2B-y	2e	2g
2A	2c	2f	[2cc
=97	=97	=97	=97
0G	2d	0g	2cc]
.	2e	.	4b-y
.	.	.	4a
.	2d	.	1b-y
.	2G	.	.
=98	=98	=98	=98
2r	1d	1r	2a
2D	.	.	2.dd
1G	2B-y	2r	.
.	.	.	4cc
.	2G	2d	4b-y
.	.	.	4a
=99	=99	=99	=99
2E	2B-y	1g	2g
2C	1c	.	2e
2E	.	2e	2g
2F	2A	2c	2a
=100	=100	=100	=100
2G	2B-y	2e	2g
2A	2c	2f	2.cc
1G	1d	1g	.
.	.	.	4a
.	.	.	2bnXi
=101	=101	=101	=101
1C	1c	2r	2.cc
.	.	2G	.
.	.	.	4b-y
2r	2F	1c	2a
2C	2G	.	2g
=102	=102	=102	=102
1F	3A	2A	2f
.	3B-y	.	.
.	.	2F	1ff
.	3c	.	.
1D	1d	2A	.
.	.	2B-y	4ee
.	.	.	4dd
=103	=103	=103	=103
1C	2G	[0c	1ee
.	2.c	.	.
2r	.	.	2.cc
.	4B-y	.	.
[2c	4A	.	.
.	4G	.	4b-y
=104	=104	=104	=104
4c]	1F	1c]	4a
4B-y	.	.	4g
4A	.	.	2f
4G	.	.	.
2F	2.c	2r	2a
2E	.	2G	2g
.	4B-y	.	.
=105	=105	=105	=105
2F	4A	1c	2a
.	4G	.	.
2C	2.c	.	2g
2.F	.	2A	2a
.	4B-y	.	.
.	4A	2F	2cc
4E	4G	.	.
=106	=106	=106	=106
4D	2.F	2A	2r
4C	.	.	.
2BB-y	.	2B-y	2b-y
.	4G	.	.
2F	4A	1c	2a
.	4B-y	.	.
2E	[2c	.	[2g
=107	=107	=107	=107
1F	4c]	[0cl	4g]
.	4B-y	.	4f
.	2A	.	1f
1C	1G	.	.
.	.	.	2e
=108	=108	=108	=108
0Fl	0Fl	0c]	0fl
=109||	=109||	=109||	=109||
*M2/1	*M2/1	*M2/1	*M2/1
*met(C|)	*met(C|)	*met(C|)	*met(C|)
!!section: Benedictus
!!!OMD: Benedictus
0r	0r	0c	0r
=110	=110	=110	=110
0r	0r	1c	0cc
.	.	1F	.
=111	=111	=111	=111
0r	0r	1c	1cc
.	.	2r	1f
.	.	[2f	.
=112	=112	=112	=112
0r	0r	2f]	1.cc
.	.	2f	.
.	.	2.e	.
.	.	.	2cc
.	.	8dL	.
.	.	8cJ	.
=113	=113	=113	=113
0r	0r	1d	2.b-y
.	.	.	8aL
.	.	.	8gJ
.	.	1c	1a
=114	=114	=114	=114
0r	0r	2r	1g
.	.	2c	.
.	.	2d	2r
.	.	2e	2g
=115	=115	=115	=115
0r	0r	1.f	2.a
.	.	.	4b-y
.	.	.	[1cc
.	.	4e	.
.	.	4d	.
=116	=116	=116	=116
0r	0r	4c	1cc]
.	.	4B-y	.
.	.	4A	.
.	.	4G	.
.	.	2F	1a
.	.	[2f	.
=117	=117	=117	=117
0r	0r	4f]	1g
.	.	8eL	.
.	.	8dJ	.
.	.	2e	.
.	.	2f	2r
.	.	2e	2g
=118	=118	=118	=118
0r	0r	1d	4a
.	.	.	4g
.	.	.	4a
.	.	.	4b-y
.	.	2r	1cc
.	.	2c	.
=119	=119	=119	=119
0r	0r	2d	2a
.	.	2e	2.cc
.	.	2.f	.
.	.	.	4b-y
.	.	.	4a
.	.	4e	4g
=120	=120	=120	=120
0r	0r	2d	2b-y
.	.	2c	1a
.	.	1d	.
.	.	.	4g
.	.	.	4f
=121	=121	=121	=121
0r	0r	2.c	4e
.	.	.	4d
.	.	.	4e
.	.	4A	4f
.	.	2B-y	2g
.	.	[2c	[2a
=122	=122	=122	=122
0r	0r	4c]	4a]
.	.	4B-y	4g
.	.	2A	1f
.	.	1G	.
.	.	.	2e
=123	=123	=123	=123
0r	0r	0F	1f
.	.	.	2r
.	.	.	2cc
=124	=124	=124	=124
0r	0r	2r	2.cc
.	.	2F	.
.	.	.	4dd
.	.	2G	2ee
.	.	2A	2ff
=125	=125	=125	=125
0r	0r	0B-y	1dd
.	.	.	2r
.	.	.	2f
=126	=126	=126	=126
0r	0r	2r	2.f
.	.	2B-y	.
.	.	.	4g
.	.	2c	2a
.	.	2d	2b-y
=127	=127	=127	=127
0r	0r	1e-i	4g
.	.	.	4a
.	.	.	4b-y
.	.	.	4cc
.	.	1d	4dd
.	.	.	4ee
.	.	.	4ff
.	.	.	4dd
=128	=128	=128	=128
0r	0r	2r	4ee
.	.	.	4dd
.	.	2c	4cc
.	.	.	4b-y
.	.	2.c	4a
.	.	.	4g
.	.	.	[2cc
.	.	4d	.
=129	=129	=129	=129
0r	0r	2e	4cc]
.	.	.	4b-y
.	.	2f	4a
.	.	.	4g
.	.	4d	4f
.	.	4e	4g
.	.	4f	4a
.	.	4d	4b-y
=130	=130	=130	=130
0r	0r	2e	2cc
.	.	2f	2.dd
.	.	2.g	.
.	.	.	4cc
.	.	.	4b-y
.	.	4f	4a
=131	=131	=131	=131
0r	0r	2e	2g
.	.	4d	1cc
.	.	4c	.
.	.	1d	.
.	.	.	2bnXi
=132	=132	=132	=132
0r	0r	1c	0cc
.	.	1r	.
=133	=133	=133	=133
0r	0r	2.e	1r
.	.	4e	.
.	.	2d	2.a
.	.	2f	.
.	.	.	4a
=134	=134	=134	=134
0r	0r	2e	2g
.	.	2d	2b-y
.	.	1c	2a
.	.	.	2g
=135	=135	=135	=135
0r	0r	1r	4f
.	.	.	4g
.	.	.	4a
.	.	.	4b-y
.	.	2.c	4cc
.	.	.	4b-y
.	.	.	4g
.	.	4c	4a
=136	=136	=136	=136
0r	0r	2B-y	2b-y
.	.	2d	1a
.	.	2c	.
.	.	2B-y	2g
=137	=137	=137	=137
0r	0r	1A	1a
.	.	2r	[1a
.	.	[2F	.
=138	=138	=138	=138
0r	0r	4F]	2a]
.	.	4G	.
.	.	4A	2a
.	.	4B-y	.
.	.	4c	1g
.	.	4d	.
.	.	4e	.
.	.	4f	.
=139	=139	=139	=139
0r	0r	4g	1b-y
.	.	4f	.
.	.	4d	.
.	.	4e	.
.	.	2f	1a
.	.	2F	.
=140	=140	=140	=140
0r	0r	2B-y	1g
.	.	2c	.
.	.	4d	2.f
.	.	4c	.
.	.	4d	.
.	.	4e	4g
=141	=141	=141	=141
0r	0r	1f	4a
.	.	.	4b-y
.	.	.	2.cc
.	.	2.e	.
.	.	.	4b-y
.	.	.	4g
.	.	4e	4a
=142	=142	=142	=142
0r	0r	2d	2b-y
.	.	2f	2a
.	.	2e	4g
.	.	.	4a
.	.	2d	4b-y
.	.	.	4g
=143	=143	=143	=143
0r	0r	2.c	2a
.	.	.	1g
.	.	8B-yL	.
.	.	8AJ	.
.	.	2B-y	.
.	.	2A	[2cc
=144	=144	=144	=144
0r	0r	2c	4cc]
.	.	.	4b-y
.	.	2.d	4a
.	.	.	4g
.	.	.	4b-y
.	.	4c	4a
.	.	4B-y	4g
.	.	4A	4f
=145	=145	=145	=145
0r	0r	2c	2e
.	.	4B-y	1f
.	.	4A	.
.	.	1G	.
.	.	.	2e
=146	=146	=146	=146
0r	0r	0Fl	0fl
==	==	==	==
*-	*-	*-	*-
!!!system-decoration: s1,s2,s3,s4
!!!RDF**kern: i = editorial accidental
!!!RDF**kern: l = terminal long
!!!ENC: Maura Sugg
!!!END: 2026/5/13
!!!EED: Benjamin Ory
!!!EEV: 2026/05/26
!!!YEC: Copyright 2026 Irene Holzer, All Rights Reserved
!!!ONB: Translated from MusicXML on 2026/05/26
!!!verovio: header encoded
!!!header-left: Edited by Irene Holzer\n
!!!header-right:
!!!header-center:
!!muse2ps: T^@{OPR}^u^@{ONM}{. }@{OTL}^C^@{COM}^i2I150v90,90,90,120c120z18l2770t130
